icons/filled/shopping-cart.svg

<svg xmlns="http://www.w3.org/2000/svg" width="24" height="24" viewBox="0 0 24 24" fill="currentColor"><path d="M6 2a1 1 0 0 1 .993 .883l.007 .117v1.068l13.071 .935a1 1 0 0 1 .929 1.024l-.01 .114l-1 7a1 1 0 0 1 -.877 .853l-.113 .006h-12v2h10a3 3 0 1 1 -2.995 3.176l-.005 -.176l.005 -.176c.017 -.288 .074 -.564 .166 -.824h-5.342a3 3 0 1 1 -5.824 1.176l-.005 -.176l.005 -.176a3.002 3.002 0 0 1 1.995 -2.654v-12.17h-1a1 1 0 0 1 -.993 -.883l-.007 -.117a1 1 0 0 1 .883 -.993l.117 -.007h2zm0 16a1 1 0 1 0 0 2a1 1 0 0 0 0 -2zm11 0a1 1 0 1 0 0 2a1 1 0 0 0 0 -2z"/></svg>

<svg xmlns="http://www.w3.org/2000/svg" width="24" height="24" fill="currentColor"><path d="M6 2a1 1 0 0 1 .993.883L7 3v1.068l13.071.935A1 1 0 0 1 21 6.027l-.01.114-1 7a1 1 0 0 1-.877.853L19 14H7v2h10a3 3 0 1 1-2.995 3.176L14 19l.005-.176q.027-.433.166-.824H8.829a3 3 0 1 1-5.824 1.176L3 19l.005-.176A3 3 0 0 1 5 16.17V4H4a1 1 0 0 1-.993-.883L3 3a1 1 0 0 1 .883-.993L4 2zm0 16a1 1 0 1 0 0 2 1 1 0 0 0 0-2m11 0a1 1 0 1 0 0 2 1 1 0 0 0 0-2"/></svg>
